pix_core/f/video.svg

<svg fill="none" preserveAspectRatio="xMinYMid meet" viewBox="0 0 24 24" xmlns="http://www.w3.org/2000/svg"><g clip-rule="evenodd" fill="#fff" fill-rule="evenodd"><path d="m10.9136 11.5794c.1694-.0847.3721-.0664.5236.0472l2.6667 2c.1259.0944.2.2426.2.4s-.0741.3056-.2.4l-2.6667 2c-.1515.1136-.3542.1319-.5236.0472s-.2764-.2578-.2764-.4472v-4c0-.1894.107-.3625.2764-.4472zm.7236 3.4472 1.3333-1-1.3333-1z"/><path d="m12 9.02661c-2.76142 0-5 2.23859-5 4.99999s2.23858 5 5 5c2.7614 0 5-2.2386 5-5s-2.2386-4.99999-5-4.99999zm-4 4.99999c0-2.2091 1.79086-4 4-4 2.2091 0 4 1.7909 4 4 0 2.2092-1.7909 4-4 4-2.20914 0-4-1.7908-4-4z"/><path d="m19.5 19c0 1.3807-1.1193 2.5-2.5 2.5h-10c-1.38071 0-2.5-1.1193-2.5-2.5v-14c0-1.38071 1.11929-2.5 2.5-2.5h6.1716c.663 0 1.2989.26339 1.7677.73223l3.8285 3.82843c.4688.46884.7322 1.10473.7322 1.76777zm-14-14c0-.82843.67157-1.5 1.5-1.5h6c.2761 0 .5.22386.5.5v3c0 .82843.6716 1.5 1.5 1.5h3c.2761 0 .5.22386.5.5v10c0 .8284-.6716 1.5-1.5 1.5h-10c-.82843 0-1.5-.6716-1.5-1.5zm9-.79289 3.2929 3.29289h-2.7929c-.2761 0-.5-.22386-.5-.5z"/></g></svg>

<svg viewBox="0 0 24 24" fill="none" xmlns="http://www.w3.org/2000/svg" preserveAspectRatio="xMinYMid meet">
<path fill-rule="evenodd" clip-rule="evenodd" d="M10.9136 11.5794C11.083 11.4947 11.2857 11.513 11.4372 11.6266L14.1039 13.6266C14.2298 13.721 14.3039 13.8692 14.3039 14.0266C14.3039 14.184 14.2298 14.3322 14.1039 14.4266L11.4372 16.4266C11.2857 16.5402 11.083 16.5585 10.9136 16.4738C10.7442 16.3891 10.6372 16.216 10.6372 16.0266V12.0266C10.6372 11.8372 10.7442 11.6641 10.9136 11.5794ZM11.6372 15.0266L12.9705 14.0266L11.6372 13.0266V15.0266Z" fill="#fff"/>
<path fill-rule="evenodd" clip-rule="evenodd" d="M12 9.02661C9.23858 9.02661 7 11.2652 7 14.0266C7 16.788 9.23858 19.0266 12 19.0266C14.7614 19.0266 17 16.788 17 14.0266C17 11.2652 14.7614 9.02661 12 9.02661ZM8 14.0266C8 11.8175 9.79086 10.0266 12 10.0266C14.2091 10.0266 16 11.8175 16 14.0266C16 16.2358 14.2091 18.0266 12 18.0266C9.79086 18.0266 8 16.2358 8 14.0266Z" fill="#fff"/>
<path fill-rule="evenodd" clip-rule="evenodd" d="M19.5 19C19.5 20.3807 18.3807 21.5 17 21.5H7C5.61929 21.5 4.5 20.3807 4.5 19V5C4.5 3.61929 5.61929 2.5 7 2.5H13.1716C13.8346 2.5 14.4705 2.76339 14.9393 3.23223L18.7678 7.06066C19.2366 7.5295 19.5 8.16539 19.5 8.82843V19ZM5.5 5C5.5 4.17157 6.17157 3.5 7 3.5H13C13.2761 3.5 13.5 3.72386 13.5 4V7C13.5 7.82843 14.1716 8.5 15 8.5H18C18.2761 8.5 18.5 8.72386 18.5 9V19C18.5 19.8284 17.8284 20.5 17 20.5H7C6.17157 20.5 5.5 19.8284 5.5 19V5ZM14.5 4.20711L17.7929 7.5H15C14.7239 7.5 14.5 7.27614 14.5 7V4.20711Z" fill="#fff"/>
</svg>
